Front/static/img/kkutu/currency/HotTime.svg

<svg width="64" height="64" viewBox="0 0 64 64" fill="none" xmlns="http://www.w3.org/2000/svg">
<rect x="1.5" y="1.5" width="61" height="61" rx="18.5" fill="url(#paint0_linear_190_14)" stroke="url(#paint1_linear_190_14)" stroke-width="3"/>
<path fill-rule="evenodd" clip-rule="evenodd" d="M33.9267 12.5716C33.6832 12.245 33.3172 12.0315 32.9131 11.9802C32.5089 11.9289 32.1013 12.0442 31.7839 12.2996C28.0435 15.3093 25.4348 19.6755 24.7064 24.6527C23.3933 23.7008 22.24 22.541 21.2952 21.2216C21.0353 20.8587 20.6272 20.6303 20.1819 20.5987C19.7366 20.5671 19.3003 20.7354 18.9917 21.058C15.9009 24.2888 14 28.6737 14 33.4993C14 43.4404 22.0589 51.4993 32 51.4993C41.9411 51.4993 50 43.4404 50 33.4993C50 26.1775 45.6286 19.88 39.3596 17.0681C37.1412 15.9851 35.3093 14.4257 33.9267 12.5716ZM39.5 36.5001C39.5 40.6422 36.1421 44.0001 32 44.0001C27.8579 44.0001 24.5 40.6422 24.5 36.5001C24.5 35.6814 24.6312 34.8934 24.8736 34.1558C26.1306 35.0851 27.5754 35.7747 29.1406 36.1573C29.5724 33.3558 30.9731 30.8739 32.9898 29.0648C36.6641 29.5492 39.5 32.6935 39.5 36.5001Z" fill="white"/>
<defs>
<linearGradient id="paint0_linear_190_14" x1="32" y1="0" x2="32" y2="64" gradientUnits="userSpaceOnUse">
<stop stop-color="#D62D52"/>
<stop offset="1" stop-color="#75142A"/>
</linearGradient>
<linearGradient id="paint1_linear_190_14" x1="32" y1="0" x2="32" y2="64" gradientUnits="userSpaceOnUse">
<stop stop-color="white"/>
<stop offset="1" stop-color="white" stop-opacity="0.35"/>
</linearGradient>
</defs>
</svg>

<svg fill="none" viewBox="0 0 64 64"><rect width="61" height="61" x="1.5" y="1.5" fill="url(#paint0_linear_190_14)" stroke="url(#paint1_linear_190_14)" stroke-width="3" rx="18.5"/><path fill="#fff" fill-rule="evenodd" d="M33.927 12.572a1.5 1.5 0 00-2.143-.272 19.483 19.483 0 00-7.078 12.353 15.095 15.095 0 01-3.41-3.431 1.5 1.5 0 00-2.304-.164A17.944 17.944 0 0014 33.499c0 9.941 8.059 18 18 18s18-8.059 18-18c0-7.322-4.371-13.619-10.64-16.43a14.919 14.919 0 01-5.433-4.497zM39.5 36.5a7.5 7.5 0 11-14.626-2.344 11.948 11.948 0 004.267 2.001 11.98 11.98 0 013.849-7.092A7.501 7.501 0 0139.5 36.5z" clip-rule="evenodd"/><defs><linearGradient id="paint0_linear_190_14" x1="32" x2="32" y1="0" y2="64" gradientUnits="userSpaceOnUse"><stop stop-color="#D62D52"/><stop offset="1" stop-color="#75142A"/></linearGradient><linearGradient id="paint1_linear_190_14" x1="32" x2="32" y1="0" y2="64" gradientUnits="userSpaceOnUse"><stop stop-color="#fff"/><stop offset="1" stop-color="#fff" stop-opacity=".35"/></linearGradient></defs></svg>
